X:16005
T:Planxty Fanny Power
T:Fanny Poer
R:Waltz
C:Turlough O'Carolan (1732)
O:Ireland
M:3/4
L:1/8
Q:1/4=120
K:G
D2|"G"G4D2|G3AB2|"C"c4B2|"Am"A4G2|"D7"F4E2|"D7"D3ED2|F4G2|A3Bc2|
"G"B3AG2|B3cd2|"Am"e4A2|A4 G2|"D"F4E2|"D7"D2G2F2|"G"G6|G4:|
d2|"G"d2Bcd2|d2Bcd2|"Em"G3AG2|G2B2G2|"C"e2cde2|e2cde2|"D7"A3BA2|A2c2A2|
"G"B3cd2|"C"e2f2g2|"D7"f3ga2|d4c2|"G"B3AG2|"D7"Ac3F2|"G"G6|G4:|

